X: 18
T:Cil y Fwyalch
T:The Blackbird's Retreat
M:C
L:1/8
Q:220
C:Trad
S:51 Welsh Airs
R:?
A:Wales
H:From a facsimile c.1840: A Choice Collection of Fifty-One Welsh Airs
H:adapted for The Harp, Piano-Forte, Harpsichord,
H:Violin, or Flute by Edward Jones
H:"Harper to His Late Majesty King George IV, when
H:Prince of Wales".
Z:brian_martin12345@yahoo.com
K:C
"Cantabile"
c2d2e2c2|B2c2d2B2|A2B2c2A2|G4G4|c2d2e2c2|B2c2d2B2|A2B2c2A2|G2A2B2c2|!
d4-d2e2|d2^c2d2e2|f2g2e2d2|e4A4|d4d2e2|
d2^c2d2e2|f2g2a2g2|f2e2d4|c4c4|(c/d/e2)z(c/d/e2)z|!
B4B4|(B/c/d2)z (B/c/d2)z|A4A4|(A/B/c2)z (A/B/c2)z|
GABc dBcA|GABc dGAB|c4c4|!
c2d2e2f2|g2f2e2d2|g4G4|(c3d)c2B2|(c3d)c2B2|cBcd edcB|c8:||
